X:1
T:Bliss, 66.66.888
T:Bliss, 66.66.888
T:Philip Paul Bliss (1838-1876)
T:Public Domain Courtesy of the Cyber Hymnal™
C:Philip Paul Bliss (1838-1876)
Z:Public Domain
Z:Courtesy of the Cyber Hymnal™
%%score 1 ( 2 3 )
L:1/8
Q:1/4=100
M:3/4
K:C
V:1 treble 
V:2 bass 
V:3 bass 
V:1
 [EG]2 | [Ec]3 [EG] [FA][EG] | [EG]2 [CE]2 [EG]2 | [FA][Fc] [Ec]2 [DB]2 | [Ec]4 [EG]2 | %5
 [Ec]3 [EG] [FA][EG] | ([EG]2 [CE]2) [EG]2 | [FA][Fc] [Ec]2 [DB]2 | [Ec]4 [Ec]2 | %9
 [Fd][Fd] [Fd]2 ([Ge]>[Fd]) | [Ec][FA] [EG]2 [Ec]2 | [Fd][Fd] [Fd]2 ([Ge]>[Fd]) | %12
 [Ec][FA] [EG]2 [EG]2 | [FA][FA] [Fc]2 [FA]2 | [EG][DB] !fermata![Ec]2 |] %15
V:2
 [C,C]2 | [C,C]3 [C,C] [C,C][C,C] | C2 G,2 [C,C]2 | [F,C][F,A,] G,2 [G,,G,]2 | [C,G,]4 [C,C]2 | %5
 [C,C]3 [C,C] [C,C][C,C] | (C2 G,2) [C,C]2 | [F,C][F,A,] G,2 [G,,G,]2 | [C,G,]4 [C,C]2 | %9
 [G,B,][G,B,] [G,B,]2 [G,B,]2 | [C,C][C,C] [C,C]2 [C,C]2 | [G,B,][G,B,] [G,B,]2 [G,B,]2 | %12
 [C,C][C,C] [C,C]2 [C,C]2 | [F,C][F,C] [F,A,]2 [F,C]2 | [G,C]G, !fermata![C,G,]2 |] %15
V:3
 x2 | x6 | E,4 x2 | x2 G,2 x2 | x6 | x6 | C,4 x2 | x2 G,2 x2 | x6 | x6 | x6 | x6 | x6 | x6 | %14
 x G, x2 |] %15

